public/img/old-svg/pointer.svg

<svg width="28" height="36" viewBox="0 0 28 36" fill="none" xmlns="http://www.w3.org/2000/svg">
<path d="M14.0007 0C6.81163 0 0.962891 5.84873 0.962891 13.0378C0.962891 21.9596 12.6305 35.0573 13.1272 35.6105C13.5938 36.1302 14.4085 36.1293 14.8742 35.6105C15.371 35.0573 27.0386 21.9596 27.0386 13.0378C27.0384 5.84873 21.1898 0 14.0007 0ZM14.0007 19.5974C10.3837 19.5974 7.44113 16.6548 7.44113 13.0378C7.44113 9.42075 10.3838 6.47817 14.0007 6.47817C17.6177 6.47817 20.5602 9.42082 20.5602 13.0378C20.5602 16.6549 17.6177 19.5974 14.0007 19.5974Z" fill="#EC824A"/>
</svg>

<svg width="28" height="36" viewBox="0 0 28 36" fill="none" xmlns="http://www.w3.org/2000/svg"><path d="M14 0C6.813 0 .964 5.849.964 13.038c0 8.922 11.668 22.02 12.164 22.573.467.52 1.281.518 1.747 0 .497-.554 12.165-13.651 12.165-22.573C27.039 5.848 21.189 0 14 0zm0 19.597a6.567 6.567 0 01-6.559-6.56 6.567 6.567 0 016.56-6.559 6.567 6.567 0 016.56 6.56 6.567 6.567 0 01-6.56 6.56z" fill="#EC824A"/></svg>
